app/dist/common/images/cadence-bancorporation.svg

<svg height="18" width="18" xmlns="http://www.w3.org/2000/svg"><path d="m0 0h18v18h-18z" fill="#f0f3fa"/><path d="m5 4.904v1.096h8v-2h-8z" fill="#002240"/><path d="m7 9.148v.852h8.001v-2h-8.001z" fill="#005944"/><path d="m5 13.085v.915h8v-2h-8z" fill="#c1af71"/></svg>

<!-- by TradingView --><svg width="18" height="18" xmlns="http://www.w3.org/2000/svg"><path fill="#F0F3FA" d="M0 0h18v18H0z"/><path d="M5 4.904V6h8V4H5v.904z" fill="#002240"/><path d="M7 9.148V10H15.001V8H7v1.148z" fill="#005944"/><path d="M5 13.085V14h8v-2H5v1.085z" fill="#C1AF71"/></svg>
